!!!!SEGMENT: pl-sa--l-1636--119_anonim--gloria.krn
!!!id: 17xx:826
!!!COM: Anonim
!!!COM-rism: pe30004985
!!!CDT:
!!!CNT:
!!!OTL: Gloria
!!!PDT:
!!!SMS-siglum: PL-SA
!!!SMS-shelfmark: L 1636
!!!NIFC-rismID: 1001100417
!!!URL-scan: http://repozytorium.nifc.pl/skany/pl-sa-nut--l1636
!!!ONB-nifc: skan 0060 (s. 3)-0061 (s. 1)
!!!SMS-variant:
!!!SMS-altvar:
**kern	**kern	**text
*part2	*part1	*part1
*staff2	*staff1	*staff1
*I"Organo	*I"Organo	*
*clefF4	*clefC1	*
*k[b-]	*k[b-]	*
*M2/1	*M2/1	*
*met(c|)	*met(c|)	*
=1	=1	=1
*all\right	*	*
2C/	1c	Gra-
2AA/	.	.
2BB-/	1d	-ti-
2GG/	.	.
=2-	=2-	=2
2C/	1e	-as
2AA/	.	.
2D/	1f	a-
2BB-/	.	.
=3-	=3-	=3
2BB-/	1d	-gi-
2GG/	.	.
2AA/	1c	-mus
2FF/	.	.
=4-	=4-	=4
*	*lig	*
4FF/	1e	ti-
4GG/	.	.
4AA/	.	.
4BB-/	.	.
0C	1f	.
*	*Xlig	*
=5-	=5-	=5
.	1g	-bi
=	=	=
1C	1g	p(ro)-
=6-	=6-	=6
*	*lig	*
4FF/	1a	-pt(er)
4GG/	.	.
4AA/	.	.
4FF/	.	.
4GG/	1b-	.
4AA/	.	.
4BB-/	.	.
4GG/	.	.
*	*Xlig	*
=7-	=7-	=7
2AA/	1cc	Ma-
2FF/	.	.
2BB-/	1b-	-gn(am)
4AA/	.	.
4GG/	.	.
=8-	=8-	=8
*	*lig	*
4FF/	1a	.
4GG/	.	.
4AA/	.	.
4BB-/	.	.
1C	1g	.
*	*Xlig	*
!!LO:LB:g=original
=9	=9	=9
*2\right	*lig	*
2F\	1a	glo-
4E\	.	.
4D\	.	.
2E\	1g	.
2C/	.	.
*	*Xlig	*
=10-	=10-	=10
*	*lig	*
2D/	1f	-ri-
2BB-/	.	.
1C	1e	.
*	*Xlig	*
=11-	=11-	=11
*	*lig	*
2BB-/	1d	-am
2GG/	.	.
2C/	1e	.
2AA/	.	.
*	*Xlig	*
=12-	=12-	=12
*	*lig	*
4FF/	1f	tu-
4GG/	.	.
4AA/	.	.
4BB-/	.	.
2C/	1e	.
4BB-/	.	.
4AA/	.	.
*	*Xlig	*
=13-	=13-	=13
2GG/	1d	.
2G\	.	.
1C 1EE	1c	-am
=14	=14	=14
4C/	1g	D(o-
4BB-/	.	.
4AA/	.	.
4GG/	.	.
4FF/	1f	-mi)-
4GG/	.	.
4AA/	.	.
4BB-/	.	.
=15-	=15-	=15
*	*lig	*
2C/	1e	-ne
2AA/	.	.
1D	1f	.
*	*Xlig	*
=16-	=16-	=16
*	*lig	*
2BB-/	1d	.
4AA/	.	.
4GG/	.	.
2AA/	1c	.
2FF/	.	.
*	*Xlig	*
=17-	=17-	=17
*	*lig	*
2D/	1f	De-
2BB-/	.	.
0C	1g	.
*	*Xlig	*
.	1ee 1g	-us
!!LO:PB:g=original
=18	=18	=18
*	*lig	*
4C\	1g	Rex
4D\	.	.
4E\	.	.
4C\	.	.
=19-	=19-	=19
4F\	1cc	.
4E\	.	.
4D\	.	.
4C\	.	.
*	*Xlig	*
2BB-/	1b-	Cae-
2GG/	.	.
=20-	=20-	=20
*	*lig	*
2.F\	1a	-le-
4E\	.	.
1D	1f	.
*	*Xlig	*
=21-	=21-	=21
*	*lig	*
4FF/	1a	.
4GG/	.	.
4AA/	.	.
4FF/	.	.
1BB-	1b-	.
*	*Xlig	*
=22-	=22-	=22
*	*lig	*
4GG/	1g	.
4AA/	.	.
4BB-/	.	.
4C/	.	.
!LO:N:vis=0	!LO:TX:a:t=P:problem:♯ above	!
1D	1f#X	.
*	*Xlig	*
1GG	1g	-ſtis
=23	=23	=23
*	*lig	*
2C/	1c	De-
2AA/	.	.
=24-	=24-	=24
2BB-/	1d	.
2GG/	.	.
*	*Xlig	*
*	*lig	*
2D/	1f	-us
2BB-/	.	.
=25-	=25-	=25
2C/	1e	.
2AA/	.	.
1D	1f	.
*	*Xlig	*
=26-	=26-	=26
2AA/	1d	Pa-
2GG/	.	.
2AA/	1c	-ter
2FF/	.	.
=27	=27	=27
*	*lig	*
2D/	1f	O-
2BB-/	.	.
4C/	1g	.
4BB-/	.	.
4AA/	.	.
4GG/	.	.
*	*Xlig	*
=28-	=28-	=28
*	*lig	*
4FF/	1a	.
4GG/	.	.
4AA/	.	.
4BB-/	.	.
1C	1g	.
*	*Xlig	*
!!LO:LB:g=original
=29	=29	=29
*	*lig	*
2D/	1f	.
2BB-/	.	.
2C/	1e	.
2AA/	.	.
*	*Xlig	*
=30-	=30-	=30
4FF/	1f	.
4GG/	.	.
4AA/	.	.
4BB-/	.	.
*	*lig	*
1C	1g	-mni-
=31-	=31-	=31
2BB-/	1d	.
2GG/	.	.
*	*Xlig	*
2AA/	1c	-po-
2FF/	.	.
2C/	1c	-tens
2FF/	.	.
=32	=32	=32
2BB-/	1d	D(o-
2GG/	.	.
=33-	=33-	=33
2AA/	1c	-mi)-
2FF/	.	.
2BB-/	1B-	-ne
2GG/	.	.
=34-	=34-	=34
*	*lig	*
2FF/	1c	Fi-
2AA/	.	.
2.BB-/	1d	.
4AA/	.	.
*	*Xlig	*
=-	=-	=
4GG/	1d	-li
4AA/	.	.
4BB-/	.	.
!LO:SIC:v:t=lub 4AA	!	!
4GG/	.	.
=35	=35	=35
2D/	1f	U-
2BB-/	.	.
=36-	=36-	=36
4C/	1g	-ni-
4BB-/	.	.
4AA/	.	.
4GG/	.	.
1FF	1a	-ge-
=37-	=37-	=37
*	*lig	*
1BB-	1b-	.
4GG/	1g	.
4AA/	.	.
4BB-/	.	.
4C/	.	.
*	*Xlig	*
=38-	=38-	=38
1D	1f#X	-ni-
1GG	1g	-te
!!LO:LBLg=original
=39	=39	=39
2F\	1f	Je-
2D\	.	.
2BB-/	1b-	-su
2GG/	.	.
=40-	=40-	=40
*	*lig	*
2AA/	1a	Chri-
2FF/	.	.
2GG/	1b-	.
2BB-/	.	.
*	*Xlig	*
=41-	=41-	=41
*	*lig	*
4GG/	1g	.
4AA/	.	.
4BB-/	.	.
4C/	.	.
!	!LO:TX:a:t=P:problem:# above	!
1D	1f#X	.
*	*Xlig	*
=42-	=42-	=42
1GG;;	1g;	-ſte
=||	=||	=||
1C	1g	Quo-
=43-	=43-	=43
2D/	1f	-ni-
2BB-/	.	.
2C/	(>1e	-am
2AA/	.	.
=44-	=44-	=44
1D	1f)	.
*	*lig	*
2BB-/	1d	tu
2GG/	.	.
=45-	=45-	=45
1AA	1c	.
*	*Xlig	*
2D/	1f	ſo-
2BB-/	.	.
=46-	=46-	=46
4C/	1g	-lus
4BB-/	.	.
4AA/	.	.
4GG/	.	.
*	*lig	*
4FF/	1a	ſan-
4GG/	.	.
4AA/	.	.
4FF/	.	.
=47-	=47-	=47
1BB-	1b-	.
*	*Xlig	*
*	*lig	*
4GG/	1g	.
4AA/	.	.
4BB-/	.	.
4C/	.	.
=48-	=48-	=48
!	!LO:TX:a:t=P:problem:# above	!
1D	1f#X	.
*	*Xlig	*
!!LO:LB:g=original
1GG	1g	-ct(us)
=49	=49	=49
1FF	1cc	tu
2BB-/	1b-	ſo-
4AA/	.	.
4GG/	.	.
=50-	=50-	=50
*	*lig	*
4FF/	1a	-lus
4GG/	.	.
4AA/	.	.
4BB-/	.	.
4C\	1g	.
4D\	.	.
4E\	.	.
4C\	.	.
*	*Xlig	*
=51-	=51-	=51
2.F\	1a	D(o-
4E\	.	.
2D/	1f#X	-mi-
2DD/	.	.
=52-	=52-	=52
0GG	1g	.
.	1g	-nus)
=53	=53	=53
4F\	1cc	tu
4E\	.	.
4D\	.	.
4C\	.	.
2BB-/	1dd	ſo-
4AA/	.	.
4GG/	.	.
=54-	=54-	=54
1FF	1cc	-lus
*	*lig	*
4C\	1g	al-
4D\	.	.
4E\	.	.
4C\	.	.
=55-	=55-	=55
2F\	1a	.
2D\	.	.
*	*Xlig	*
*	*lig	*
2BB-/	1b-	-tiſ-
2GG/	.	.
=56-	=56-	=56
2AA/	1cc	.
2FF/	.	.
*	*Xlig	*
*	*lig	*
4BB-/	1b-	.
4C/	.	.
4D/	.	.
4E/	.	.
=57-	=57-	=57
2F\	1a	.
4E\	.	.
4D\	.	.
*	*Xlig	*
2E\	1g	.
2C\	.	.
=58-	=58-	=58
1D	1f#X	-si-
1GG	1g	-m(us)
!!LO:PB:g=original
=59	=59	=59
2F\	1f	Je-
2D/	.	.
2BB-/	1b-	-su
2GG/	.	.
=60-	=60-	=60
*	*lig	*
2AA/	1a	Chri-
2FF/	.	.
2GG/	1b-	.
2AA/	.	.
*	*Xlig	*
=61-	=61-	=61
*	*lig	*
4GG/	1g	.
4AA/	.	.
4BB-/	.	.
4C/	.	.
!	!LO:TX:a:t=P:problem:♯ above, dopisane ołówkiem	!
2D/	1f#X	.
2DD/	.	.
*	*Xlig	*
=62-	=62-	=62
0GG	0g	-ſte
==	==	==
*-	*-	*-
!!!system-decoration: s1,s2
!!!RDF**kern: > = above
!!!ENC: Marta Lawrence
!!!END: 2020-12-10
!!!ENC: Andrzej Kubiczek
!!!END: 2020-06-14
